X:2853
T: Charley Mulvahill's
C:Trad
S: The First Month of Spring, John Vesey and Paul Brady
I:speed 250
M:4/4
K:D
dB |: AF F2 G G2 B | AF F2 EGFE | DEFA dfec |[1dBAF E2 dB:|[2dBAF D2 de|
f f2 a g2 fg | agfg edBd | f f2 e dfec | dBAF E2 fg | 
af f2 bfaf | defd e2 de | f f2 e dfec | dBAF D4|| 


